X:0857
T:Kiss My Lady,
T:for the Ger. Flute
M:2/4
L:1/8
Q:1/4=120
I: :: :: :: :: :: :: :: :|
N:initial repeat bar added
N:upbeats need fixed
Z:Jack Campin * www.campin.me.uk * 2009
K:D
A|:d3     f|e3     g|fa    a/g/f/e/|dddA    |d3  f|e3  g|fa a/g/f/e/|d3   z:|
   zafa    |zbgb    |zgeg          |zafa    |zd'af|zbge |zfgf       |ddHd2 :|
   A2    FG|AAAA    |gzez          |fzdz    |c4   |d4   |bagf       |ee e2 :|
   g4      |f4      |ggge          |fffd    |bb`bg|ad'bg|fdec       |dd d2 :|
A| dd/e/ df|ee/f/ eg|fa    a/g/f/e/|ddd>z  :|
   Aafa    |Bb````gb|Ggeg          |Aafa    |Fd'af|Gbgf |Afge       |dd`d>z:|
   A2    FG|A2    AA|geed          |fddd    |c2 ce|d2 da|bagf       |f2 e  :|
f| gg/b/ ge|ff/a/ fd|gg/b/ ge      |ff/a/ fd|b2 bg|ad'bg|f2 ge      |dd d2 :|

